X: 1
T:Jane Campbell
M:C
L:1/8
Q:80
C:Michael Grey
S:Strathspey
K:HP
[| {g}A|
{GdG}f2{g}((3fed){gBd}B/2{e}G3/2{g}B/2d3/2|
{g}A2{GdGe}A3/2d/2{gfg}f3/2d/2{gef}e2|  !
{gAGAG}((3A3/2f/2{g}fed){gBd}B/2{e}G3/2{g}B3/2d/2|
{g}A2{GdGe}A3/2B/2{g}B/2d3/2{gdG}d2{GdG}f2{g}((3fed){gBd}B/2{e}G3/2{g}B/
2d3/2|
{g}A2{GdGe}A3/2d/2{gfg}f3/2d/2{gef}e2|  !
{gAGAG}((3A3/2f/2{g}fed){gBd}B/2{e}G3/2{g}B3/2d/2|
{g}A2{GdGe}A3/2B/2{g}B/2d3/2{gdG}d|] [|
e|  !
{gfg}((3f3/2e/2{g}fed){ag}a2{GdG}f2|
{gfg}f3/2d/2{ag}a3/2d/2{g}B/2d3/2{gef}e2|
{gAGAG}((3A3/2f/2{g}fed){ag}a3/2d/2{g}B/2d3/2|  !
{g}A2{GdGe}A3/2B/2{g}B/2d3/2{gdG}d3/2e/2{gfg}f3/2e/2{g}((3fed){ag}a2{GdG
}f2|
{gfg}f3/2d/2{ag}a3/2d/2{g}B/2d3/2{gef}e2|
{g}((3fed){ag}a3/2g/2{afg}f3/2d/2{g}B/2d3/2|  !
{g}A2{GdGe}A3/2B/2{g}B/2d3/2{gdG}d2|]
